!!!OTL: IN DULCI JUBILO
!!!ARE: Europa, Mitteleuropa, Deutschland
!!!SCT: E1929
!!!YEM: Copyright 1995, estate of Helmut Schaffrath.
**kern
*ICvox
*Ivox
*M3/4
*k[b-]
*F:
{4f
=1
2f
4f
=2
2a
4b-
=3
2cc
4dd
=4
2cc}
{4cc
=5
2f
4f
=6
2a
4b-
=7
2cc
4dd
=8
2.cc}
=9
{2cc
4dd
=10
2cc
4b-
=11
2.a
=12
2f}
{4f
=13
2g
4g
=14
2a
4g
=15
2f
4g
=16
2a}
{4a
=17
2cc
4dd
=18
2cc
4b-
=19
2.a
=20
2f}
{4f
=21
2g
4g
=22
2a
4g
=23
2f
4g
=24
2.a}
=25
{2d
4d
=26
2e
4e
=27
2.f
=28
2.cc}
=29
{2a
4a
=30
2g
4g
=31
2.f
=32
2r}
==
!!!AGN: geistlich, Fest - Lied, Weihnachten
!!!ONB: ESAC (Essen Associative Code) Database: ERK3
!!!AMT: simple triple
!!!AIN: vox
!!!EED: Helmut Schaffrath
!!!EEV: 1.0
*-
